X:1
T:F# minor Alexander Johnson, 1818
T:Isaac Watts, 1709 (Hymn 3, Book 2)          86. 86. (C. M.)
T:Separation
T:Treble-Tenor-Bass from Moore's Columbian Harmony , 1825 ; Counter by B. C. Johnston, 2017.
%%score [ 1 2 3 4 ]
L:1/8
Q:1/4=90
M:4/4
K:A
V:1 treble nm="Tr." snm="Tr."
V:2 treble nm="C." snm="C."
V:3 treble-8 nm="T." snm="T."
V:4 bass nm="B." snm="B."
V:1
"^1. Why do we mourn departing friends,  Or shake at death's alarms?        Tis but the voice that  Je –sus  sends  To call them to his arms." c4 c3 d | %1
 e2 c2 fe fg | c4 c4 | e2 c2 cB Ac | B8 | c4 c3 c | e2 c2 fe fg | c4 c4 | f3 e c2 c2 | c8 |: %10
"^1. Are we not tending   up–ward  too  As  fast as time can move?     Nor would we wish the hours more slow  To keep us from our love." c4 c2 c2 | %11
 e2 e2 ec cA | B4 c4 | e2 c2 cB Ac | B8 | c4 c3 c | e2 c2 fe fg | c4 c4 | f3 e c2 c2 | c8 :| %20
V:2
"^2. Why should we tremble  to  con–vey  Their bodies to  the    tomb?         There the dear flesh of  Je – sus  lay,  And left a long perfume." F4 c3 B | %1
 A2 c2 cB cB | A4 F4 | A2 A2 AB AF | E8 | F4 c3 A | A2 c2 cB cB | c4 A4 | F3 G A2 G2 | F8 |: %10
"^2. The graves of all his saints he blessed,  And softened every  bed;    Where  should  the dying members rest,  But with the dying head?" F4 E2 E2 | %11
 A2 c2 AF EA | B4 A4 | c2 c2 AF Ac | B8 | A4 F3 G | AB c2 A2 F2 | F4 A4 | c3 B c2 G2 | F8 :| %20
V:3
"^3. Thence he  arose, a –scen –ding  high,  And showed our feet the way;     Up  to  the  Lord our flesh shall fly,  At the great rising day." A4 F3 G | %1
 AG AB c2 cB | c4 A4 | c2 F2 AF ED | (E3 F E4) | A4 F3 G | AG AB c2 cB | c4 f4 | c3 B A2 G2 | F8 |: %10
"^3. Then let the last loud trumpet sound,  And bid our kindred rise;         Awake, ye   nations underground;  Ye saints, ascend the skies." c4 e2 e2 | %11
 ec cd ec cB | B4 A4 | c2 F2 AF ED | (E3 F E4) | A4 F3 G | AG AB c2 cB | c4 f4 | c3 B A2 G2 | F8 :| %20
V:4
 F,4 F,3 E, | A,,B,, C,E, F,2 F,2 | F,4 F,4 | F,2 F,2 CB, A,F, | E,8 | F,4 F,3 C, | %6
 A,,B,, C,E, F,2 F,2 | F,4 C4 | F,3 G, C,2 C,2 | F,8 |: F,4 C,2 C,2 | A,2 A,2 A,F, E,D, | E,4 F,4 | %13
 F,2 F,2 CB, A,F, | E,8 | F,4 F,3 C, | A,,B,, C,E, F,2 F,2 | F,4 C4 | F,3 G, C,2 C,2 | F,8 :| %20

